#TITLE The Serpent Trench
#ALBUM Final Fantasy VI
#COMPOSER Nobuo Uematsu
#ARRANGED emberling
##created with sqspcmml beta 1.1.5

#--------- ------------------
#SHORTNAME FF6 Serpent Trench

#WAVE 0x20 0x86 horn
#WAVE 0x21 0x65 strings
#WAVE 0x22 0x64 contrabass
#WAVE 0x23 0x62 hi-strings

#def 0i=   |0 %s5
#def 0o=   o5
#def 0v=   v133
#def 0f= v1,133

#def 1i=   |1
#def 1o=   o5
#def 1v=   v100
#def 1f= v1,100

#def 2i=   |2
#def 2o=   o5
#def 2v=   v100
#def 2f= v1,100

#def 3i= |3

{1}
t130%b0,100%f0,0%v50'0v*v.60'
'0i' p64%e1m48,18,239
$101[16r1]r2'0o'e2c2>g2g+2<g2r4f4d+4d4c+2a+2r4g+4e4>b4<c+1^2^4r4r2e2c2
>g2g+2<g2r4f4d+4d4c+2<c+2r4>b4<e4>b4a+1^2^4r4
;101


{2}
'1v*v.30'
'3i' p90%e1&2r1
$201[8r1]'1o+o1'[3[8%l1e16f16g16a16%l0][8%l1g16g+16a+16<c16>%l0][4%l1a+16
b16<c+16d+16>%l0][%l1g+16a16b16<c+16>%l0][%l1f+16g16a16b16%l0][8%l1f16
f+16g+16a+16%l0]]
;201


{3}
'1v*v.30'
'3i' p40%e1&2r1
$301[8r1]'1o+o1'[3[8%l1c16d16e16f16%l0][8%l1d+16f16g16g+16%l0][4%l1f+16
g+16a+16b16%l0][%l1e16f+16g+16a16%l0][%l1d16e16f+16g16%l0][8%l1c+16d+16
f16f+16%l0]]
;301


{4}
'1v*v.60'
'1i' p50%e1
$401'1o'[4'1v*v.60'e16r16'1v*v.30'e16r16e16r16]['1v*v.60'e16r16'1v*v.30'
e16r16][4'1v*v.60'g16r16'1v*v.30'g16r16g16r16]['1v*v.60'g16r16'1v*v.30'
g16r16][3'1v*v.60'a+16r16'1v*v.30'a+16r16a+16r16]'1v*v.60'g+16r16'1v*v.30'
g+16r16g+16r16['1v*v.60'f+16r16'1v*v.30'f+16r16][4'1v*v.60'f16r16'1v*v.30'
f16r16f16r16]['1v*v.60'f16r16'1v*v.30'f16r16]
;401


{7}
'1v*v.60'
'1i' p60%e1
$501'1o-o1'[4'1v*v.60'a16r16'1v*v.30'a16r16a16r16]['1v*v.60'a16r16'1v*v.30'
a16r16]<[4'1v*v.60'c16r16'1v*v.30'c16r16c16r16]['1v*v.60'c16r16'1v*v.30'
c16r16][3'1v*v.60'd+16r16'1v*v.30'd+16r16d+16r16]'1v*v.60'c+16r16'1v*v.30'
c+16r16c+16r16>['1v*v.60'b16r16'1v*v.30'b16r16][4'1v*v.60'a+16r16'1v*v.30'
a+16r16a+16r16]['1v*v.60'a+16r16'1v*v.30'a+16r16]
;501


{5}

'1i' p70%e1
$601'1o-o1'[4'1v*v.70'g16r16'1v*v.35'g16r16g16r16]['1v*v.70'g16r16'1v*v.35'
g16r16][4'1v*v.70'a+16r16'1v*v.35'a+16r16a+16r16]['1v*v.70'a+16r16'1v*v.35'
a+16r16]<[3'1v*v.70'c+16r16'1v*v.35'c+16r16c+16r16]>'1v*v.70'b16r16'1v*v.35'
b16r16b16r16['1v*v.70'a16r16'1v*v.35'a16r16][4'1v*v.70'g+16r16'1v*v.35'
g+16r16g+16r16]['1v*v.70'g+16r16'1v*v.35'g+16r16]
;601


{6}

'2i' p80%e1
$701'2o'[4'2v*v1.00'f16r16'2v*v.50'f16r16f16r16]['2v*v1.00'f16r16'2v*v.50'
f16r16][4'2v*v1.00'g+16r16'2v*v.50'g+16r16g+16r16]['2v*v1.00'g+16r16'2v*v.50'
g+16r16][3'2v*v1.00'b16r16'2v*v.50'b16r16b16r16]'2v*v1.00'a16r16'2v*v.50'
a16r16a16r16['2v*v1.00'g16r16'2v*v.50'g16r16][4'2v*v1.00'f+16r16'2v*v.50'
f+16r16f+16r16]['2v*v1.00'f+16r16'2v*v.50'f+16r16]
;701

