#TITLE The Bookworm
#ALBUM King's Quest VI
#COMPOSER Chris Brayman
#ARRANGED Gi Nattak

# Converted from binary by mfvitools

#WAVE 0x20 0x08
#WAVE 0x21 0x96
#WAVE 0x22 0x19
#WAVE 0x23 0x07
#WAVE 0x24 0x1C

{1}
l16t76%v20v120p62%e1%k1 $1 |0o6>f32r^32<c32r^32>d+32r^32<c32r^32>c+32r^32<c32r32>c^32r32c32r32d32r32e32r32  
f32r^32<c32r^32>d+32r^32<c32r^32>c+32r^32<c32r32>c^32r32c32r32d32r32e32r32  
f32r^32<fef32r^32c32r^32m16,16,239c+8^32mr32d+32c+32c32r32>a+32r32g+32r32g32r32  
g+32r32<c32r32>g32r32<c32r32>f32r32<c32r32>e32r32f32r32g32r32f32r32e32r32c+32r32cr32b32<cr  
>f32r^32<fef32r^32c32r^32m16,16,239c+8^32mr32d+32c+32c32r32>a+32r32g+32r32g32r32  
g+32r32<c32r32>g32r32<c32r32>frerfr4^8^  f32r^32<fef32r^32c32r^32m16,16,239c+8^32mr32d+32c+32c32r32>a+32r32g+32r32g32r32  
g+32r32<c32r32>g32r32<c32r32>f32r32<c32r32>e32r32f32r32g32r32f32r32e32r32c+32r32cr32b32<cr  
>f32r^32<fef32r^32c32r^32m16,16,239c+8^32mr32d+32c+32c32r32>a+32r32g+32r32g32r32  
g+32r32<c32r32>g32r32<c32r32>frerfr4f32r32g32r32a32r32  a+32r^32<f32r^32>g+32r^32<f32r^32>f+32r^32<f32r32>f^32r32f32r32g32r32a32r32  
a+32r^32<f32r^32>g+32r^32<f32r^32>f+32r^32<f32r32>f^32r32f32r32g32r32a32r32  
a+32r^32<a+aa+32r^32f32r^32m16,16,239f+8^32mr32g+32f+32f32r32d+32r32c+32r32c32r32  
c+32r32f32r32c32r32f32r32>a+32r32<f32r32>a32r32a+32r32<c32r32>a+32r32a32r32f+32r32f>f32o6e32fo4a32r32  
<a+32r^32<a+aa+32r^32f32r^32m16,16,239f+8^32mr32g+32f+32f32r32d+32r32c+32r32c32r32  
c+32r32f32r32c32r32f32r32>a+rara+r4^8^  f32r8^^32d+32r8^^32<f32r^32f+32r^32f32r32d+32r32c+32r32c32r32  
>a+32r^32<a+aa+32r^32f32r^32m16,16,239f+8^32mr32g+32f+32f32r32d+32r32c+32r32c32r32  
c+32r32f32r32c32r32f32r32>a+32r32<f32r32>a32r32a+32r32<c32r32>a+32r32a32r32f+32r32f>f32o6e32fo4a32r32  
<a+32r^32<a+aa+32r^32f32r^32m16,16,239f+8^32mr32g+32f+32f32r32d+32r32c+32r32c32r32  
c+32r32f32r32c32r32f32r32>a+rara+r8^>a+32r2  ^4^8^b32<c32r8^32>b32<c32c+8^^32r32c32  
r2^8^^32
;1

l16
{2}
l16v50p24%e1%k1 $2 |1r1  ^1  ^8o5<c32r8^^32c32r8^^32>b32r8^^32a+32r8  
^^32<c32r8^^32c32r8^^32>b32r8^^32a+32r8  ^^32<c32r8^^32c32r^32>c+32r^32b32r8^^32a+32r8  
^^32<c32r8^^32>a+32r^32<c32r2  ^^32c32r8^^32c32r^32>c+32r^32b32r4^^32f32  
r^32<c32r8^^32c32r^32>c+32r^32b32r8^^32a+32r^32f32  r^32<c32r8^^32c32r^32>c+32r^32b32r8^^32a+32r8  
^^32<c32r8^^32>a+32r^32<c32r1  ^1  ^4^8^^32[3>a+32r^32<f32r8^^32f32r^32>f+32  
r^32<e32r8^^32d+32r^32]>a+32r^32<f32r8^^32d+32r^32c+32  r1  ^4^8^^32[3>a+32r^32<f32r8^^32f32r8  
^^32e32r8^^32d+32r^32]>a+32r^32<f32r8^^32d+32r^32f32  r2^^32e32r8^^32e32r^32f32  
r1  ^4^8^^32
;2

l16
{3}
l16v80p74%e1%k1 $3 |2r1  ^1  ^1  
^1  ^1  ^1  ^8o5c32r8^^32c32r8^^32>b32r8^^32a+32r8  
^^32g+32r^32c32r^32a+32r8^^32b32r^32a+32r^32c32r^32f32  r^32<c32r8^^32c32r8^^32>b32r8^^32a+32r^32c32  
r^32g+32r^32c32r^32a+32r^32g+32r1  ^1  ^2^^32f32r8^^32f32r8  ^^32e32r8^^32d+32r^32>f32r^32<c+32r^32>f32r^32<d+32r8  
^^32e32r^32d+32r^32>f32r^32a+32r^32<f32r8^^32f32r8  ^^32e32r8^^32d+32r8^^32f32r8^^32d+32r^32f32  
r1  ^2^^32[3f32r8^^32f32r8  ^^32e32r8^^32d+32r8^^32]f32r8^^32d+32r^32f32  
r1  ^1  ^4^8^^32
;3

l16
{4}
l16v60p62%e1%k1 $4 |3r1  ^1  
^1  ^1  ^1  ^1  
^1  ^1  ^1  ^1  
^1  ^1  o4<f32r^32a+32r^32<c+32r^32f32r^32e32r8^32d+32e32f32r8^^32  
f32r^32a+32r^32a32r^32f+32r^32e32f32e32f32e32f32d+32e32f32r8^^32  
>f32r^32a+32r^32<c+32r^32f32r^32e32r8^32d+32e32f32r8^^32  f32r^32d+32r^32c+32r^32c32r^32>a+32r1  
^4^8^^32f32r^32a+32r^32<c+32r^32f32r^32e32  r8^32d+32e32f32r8^^32f32r^32a+32r^32a32r^32f+32r^32e32  
f32e32f32e32f32d+32e32f32r8^^32>f32r^32a+32r^32<c+32r^32f32r^32e32  
r8^32d+32e32f32r8^^32f32r^32d+32r^32c+32r^32c32r^32>a+32  r4^8^^32o7c32r^32>a+32r^32g+32r^32g32r^32f32  
r1  ^4^8^^32
;4

l16
{5}
l16v40p94%e1%k1 $5 |4r1  ^1  o5fr8^d+r8^c+r8c^32r32cde  
fr8^cr8^c+r8c^32r32cde  fr8^d+r8^c+r8c^32r32cde  fr8^cr8^fr4^8^  
fr8^d+r8^c+r8c^32r32cde  fr8^cr8^c+r8c^32r32cde  fr8^d+r8^c+r8c^32r32cde  
fr8^cr8^fr1  ^1  ^1  ^1  
^1  ^1  ^1  ^1  
^1  ^1  ^1  ^1  
^1  ^4^8^
;5

l16
{6}
l16v50p62%e1%k1 $6 |1r1  ^1  ^1  
^1  ^1  ^2o5f32r1  ^4^^32a+32r1  
^1  ^2^^32f32r4^32v50|0f32r32g32  r32a32r32[2a+32r^32<f32r^32>g+32r^32<f32r^32>f+32r^32<f32r32>f^32r32f32r32g32  
r32a32r32]v120a+32r8^^32g+32r8^^32f+32r8^32f32r^32f32r32g32  r32a32r32a+32r8^^32f32r8^^32f+32r8^32f32r8^32g32  
r^32a+32r8^^32g+32r8^^32f+32r8^32f32r^32f32r32g32  r32a32r32a+32r8^^32f32r8^^32a+32r2  
^4^8^^32<f32r^32f+32r^32f32r32d+32r32c+32r32c32r32>a+32  r8^^32g+32r8^^32f+32r8^32f32r^32f32r32g32r32a32r32a+32  
r8^^32f32r8^^32f+32r8^32f32r8^32g32r^32a+32  r8^^32g+32r8^^32f+32r8^32f32r^32f32r32g32r32a32r32a+32  
r8^^32f32r8^^32a+32r1  ^1  ^4^8^^32
;6

l16
{7}
l16v50p24%e1%k1 $7 |1r1  
^1  o5f32r^32g+32r^32d+32r^32g+32r^32c+32r^32g+32r32c^32r32c32r32g32r^32  
f32r^32g+32r^32c32r^32g32r^32c+32r^32g+32r32c^32r32c32r32g32r^32  
f32r^32g+32r^32d+32r^32g+32r8^^32g+32r32c^32r32c32r32g32r^32  f32r^32g+32r^32c32r^32g32r^32g+32r4^8^^32  
f32r^32g+32r^32d+32r^32g+32r8^^32g+32r32c^32r32c32r32g32r8  ^^32g+32r^32c32r^32g32r8^^32g+32r32c^32r32c32r32g32r8  
^^32g+32r^32d+32r^32g+32r8^^32g+32r32c^32r32c32r32g32r^32f32  r^32g+32r^32c32r^32g32r^32g+32r1  
^1  ^2^^32<c+32r^32>g+32r^32<c+32r8  ^^32c+32r32>f^32r32f32r32<c32r8^^32c+32r^32>f32r^32<c32r8  
^^32c+32r32>f^32r32f32r32<c32r8^^32c+32r^32>g+32r^32<c+32r8  ^^32c+32r32>f^32r32f32r32<c32r8^^32c+32r^32>f32r^32<c32r^32c+32  
r1  ^2^^32c+32r^32>g+32r^32<c+32r^32>f+32  r^32<c+32r32>f^32r32f32r32<c32r8^^32c+32r^32>f32r^32<c32r^32>f+32  
r^32<c+32r32>f^32r32f32r32<c32r8^^32c+32r^32>g+32r^32<c+32r^32>f+32  
r^32<c+32r32>f^32r32f32r32<c32r8^^32c+32r^32>f32r^32<c32r^32c+32  
r2^^32>a+32r8^^32<c32r^32c32  r1  ^4^8^^32
;7

l16
{8}
l16v80p50%e1%k1 $8 |2r1  
^1  ^1  ^1  ^1  
^1  o3<f32r^32g+32r^32d+32r^32g+32r^32c+32r^32g+32r32c^32r32c32r32g32r^32  
c32r^32f32r8^^32g32r^32c+32r^32f32r32c32r32g32r4  ^^32g+32r^32d+32r^32g+32r^32c+32r^32g+32r32c^32r32c32r32g32r8  
^^32f32r8^^32e32r^32f32r1  ^1  ^4^8^^32>a+32r^32<c+32r^32>g+32r^32<c+32r^32>f+32  
r^32<c+32r32>f^32r32f32r32<c32r8^^32>a+32r8^^32<c32r^32>f+32  r^32a+32r32f32r32<c32r4^^32c+32r^32>g+32r^32<c+32r^32>f+32  
r^32<c+32r32>f^32r32f32r32<c32r^32>a+32r^32<c+32r^32>f32r^32<c32r^32>a+32  
r1  ^4^8^^32a+32r^32<c+32r^32>g+32r^32<c+32r^32>f+32  r^32<c+32r32>f^32r32f32r32<c32r^32>a+32r^32<c+32r^32>f32r^32<c32r^32>f+32  
r^32<c+32r32>f^32r32f32r32<c32r^32>a+32r^32<c+32r^32>g+32r^32<c+32r^32>f+32  
r^32<c+32r32>f^32r32f32r32<c32r^32>a+32r^32<c+32r^32>f32r^32<c32r^32>a+32  
r2^^32g32r8^^32g32r^32g+32  r1  ^4^8^^32
;8

l16
