##created with sqspcmml beta 1.1.5

#WAVE 0x20 0x65 strings
#WAVE 0x21 0x64 contrabass
#WAVE 0x22 0x2C clash cymbal
#WAVE 0x23 0x1B snare
#WAVE 0x24 0x5B timpani

#def 0i=   |0
#def 0o=   o5
#def 0v=   v100
#def 0f= v1,100

#def 1i=   |1
#def 1o=   o5
#def 1v=   v100
#def 1f= v1,100

#def 2i=   |2
#def 2v=   v100
#def 2f= v1,100

#def 3i=   |3
#def 3v=   v100
#def 3f= v1,100

#def 4i=   |4
#def 4o=   o5
#def 4v=   v100
#def 4f= v1,100

## auto percussion  0x22
#drum "h"= 5a
## auto percussion  0x23
#drum "i"= 5a


{1}
t120%b0,100%f0,0%v50'0v*v.80'
'0i' p50%e1'0o-o1'e16f+16g16r1r4r16'0v*v.60't85e16f+16g16e16d+16<c16>b16
a16g16d+16e16b16f+16g16<e16>b16<g16d+16e16b16f+16g16<e16>b16<g4g12f+12
e12d+8r4.a4a12g12f+12e8r4.b16a+16<c16>b16f+16f16g16f+16>b16a+16<c16>b16
f+16f16g16f+16t75g16r16a16r16b8.r16<g32r32g32r32a32r32a32r32b8.r16>a16
r16b16r16<c8.r16a32r32a32r32b32r32b32r32<c8.r16t80>>b16<c16>b16r8.<d+16
e16d+16r8.f+16g16f+16r16>b16<c16>b16r8.<d+16e16d+16r8.f+16g16f+16e16b2
^4r8b24b24b24b24r8.r48;

{2}
'0v*v.80'
'0i' p60%e1'0o'e16f+16g16r1r4r16r1r2'0v*v.60'<c+4c+12c+12c+12>b8r4.<d+4
d+12d+12d+12>b8r4.r1e16r16e16r16d+8.r16<e32r32e32r32e32r32e32r32d+8.r16
>f+16r16g16r16a8.r16<f+32r32f+32r32g32r32g32r32a8.r16>d+16e16d+16r8.f+16
g16f+16r8.a16b16a16r16d+16e16d+16r8.f+16g16f+16r8.a16b16a16g16<d+2^4r8
d+24d+24d+24d+24r8.r48;

{3}
'0v*v.60'
'0i' p70%e1r1r2r1r2'0o'g4g12f+12e12d+8r4.a4a12g12f+12g8r4.r1>b16r16a16
r16f+8.r16<b24r48b24r48a24r48a24r48f+8.r16c16r16>b16r16a8.r16<<c24r48c24
r48>b24r48b24r48a8.r16>b16<c16>b16r8.<d+16e16d+16r8.f+16g16f+16r16>b16
<c16>b16r8.<d+16e16d+16r8.f+16g16f+16e16b2^4r8b24b24b24b24r8.r48;

{4}
'1v*v1.00'
'1i' p75%e1'1o'e16f+16g16r1r4r16'1v*v.80'e16f+16g16e16d+16<c16>b16a16g16
d+16e16b16f+16g16<e16>b16<g16d+16e16b16f+16g16<e16>b16>a+4a+12a+12a+12
b8r4.<c4c12c12c12>b8r4.r2<b8a8d+8>b8<e16r16c+16r16>b8.r16<<e24r48e24r48
c+24r48c+24r48>b8.r16d+16r16e16r16f+8.r16<d+24r48d+24r48e24r48e24r48f+8.
r16>>'1v*v1.00'[32b24r48]b2^4r8b24b24b24b24r8.r48;

{5}
r1r2r1r2r1r1r1r1r1r1r1r1r4;

{6}
'2v*v.80'
'2i' p45%e1m48,18,239r2'2o-o1'" !!!o h2"^2r1r2r1r1r1r1r1r4"h4"^8"h4"^8
^4"h4"^8"h4"^8"h4"^1;

{7}

'3i' p64%e0'3o'" !!!o i16i16i16"r1r4r16r1r2['3v*v.50''3f*v48,.10'%g1[12
"i48"]%g0'3v*v.50'"i12i12i12i2"]r1r1r1'3v*v.10''3f*v192,.50'[8"i16i32i32
"]'3v*v.10''3f*v192,.50'[7"i16i32i32"]"i32i32i32i32i2"r4."i24i24i24i24
"r8.r48;

{8}
'4v*v1.20'
'4i' p55%e0r2'4o-o2''4f*v192,.10'[24b24]r1r2r1r1r1r1r1'4v*v1.20'r8.<f+32
f+32>b4^16<f+32f+32>b4^8r8.<f+32f+32>b4^16<f+32f+32>b8b16b16b16b16b2^4
r8b24b24b24b4;
;
